X:14789
T:Salamanca Reel, The
R:reel
E:7
M:C|
I:speed 350
K:D
dB|AD(3FED AD(3FED|Adcd fedc|BE~E2 BE~E2|Beed cdeg|\
fB~B2 fB~B2|fgfe dfag|fdec dBAG|FAEA D2:|*
fg|afdg bgeg|fdcd BAFG|Addc defg|(3aba gb a2fg|\
~a3f~g3e|~f3e dfag|fdec dBAG|FAEA D2:|**
